wow64/16x16/apps/ubiquity-kde.svg

<?xml version="1.0" encoding="UTF-8"?>
<svg xmlns="http://www.w3.org/2000/svg" xmlns:xlink="http://www.w3.org/1999/xlink" width="32px" height="32px" viewBox="0 0 32 32" version="1.1">
<defs>
<linearGradient id="linear0" gradientUnits="userSpaceOnUse" x1="4" y1="18" x2="29" y2="18" >
<stop offset="0" style="stop-color:rgb(33.333333%,35.294118%,37.254902%);stop-opacity:1;"/>
<stop offset="1" style="stop-color:rgb(29.411765%,30.980392%,32.54902%);stop-opacity:1;"/>
</linearGradient>
<linearGradient id="linear1" gradientUnits="userSpaceOnUse" x1="6.8259" y1="8.3259" x2="26.1741" y2="27.6741" >
<stop offset="0" style="stop-color:rgb(24.705882%,89.019608%,90.588235%);stop-opacity:1;"/>
<stop offset="1" style="stop-color:rgb(2.352941%,41.960784%,73.72549%);stop-opacity:1;"/>
</linearGradient>
<filter id="alpha" filterUnits="objectBoundingBox" x="0%" y="0%" width="100%" height="100%">
  <feColorMatrix type="matrix" in="SourceGraphic" values="0 0 0 0 1 0 0 0 0 1 0 0 0 0 1 0 0 0 1 0"/>
</filter>
<mask id="mask0">
  <g filter="url(#alpha)">
<rect x="0" y="0" width="32" height="32" style="fill:rgb(0%,0%,0%);fill-opacity:0.2;stroke:none;"/>
  </g>
</mask>
<image id="image6" width="23" height="28" xlink:href="data:image/png;base64,iVBORw0KGgoAAAANSUhEUgAAABcAAAAcCAYAAACK7SRjAAAABmJLR0QA/wD/AP+gvaeTAAACEklEQVRIibWW227TQBCGPzuOHWhcTi1IiBve/6GQQKgQAeXUNE7TmIv5J5ls1iYgdaXRendm/5md0xoecBT/KFMAfVj3jIwx8CJQKfKxFfWBTgZ3wAlQAbW+S4HeA2tgo29XdDCqEfCJQB8Dc2AWwFfAb2ApJVnrc+DuikrAT4GXQCtla+AXsJC83ySNx6DlbvUceAW81dwAHfBZYBv27tn+r+WvgTfAGXAj5dein+HMSZZHn8+B57LcwZfa90BnE2MMvBS/Eegc83uhdSN+OQRe5jYTBa6kBqaaq8AbrJUh8FwBFclcJnJ/BU+tdSozlOMfKIngsSprrGgeaXZXxIpN+V7BOwU58FqHWuAJcI6lZCNeo/W5+K3k6xS8CsAx/c6AZ8AFloatAGdYLrfavwC+Y7m+Au6wYiqAPqaig890+AVW9pdYITl4ofUl+0L6huX/CqvWI7ekN3DfNok/PS7uJo/FUdZEy3tdaYP1j1usEp1uxe8y+x37/rJrAZOM1Z5m02DdVDId8ANrXB+A98BH4CvWKddYh+xT8KHhN+qwwC0E/E7gn7CgLkm6Y84td1hw3Mf3Orhg33K/AFcC9mB6puzckjauXmCd1lv2j8OV5DdaX8tFN5LfuWMMnKCgF9gSS8OJeCsskCsO/XwAPvZAx+A6+YOwCRT/Ao5AxkZUEmU9PoO/FaeAj8mN/hA9+PgDr+GZqA8HdAAAAAAASUVORK5CYII="/>
<clipPath id="clip1">
  <rect x="0" y="0" width="32" height="32"/>
</clipPath>
<g id="surface7" clip-path="url(#clip1)">
<use xlink:href="#image6" transform="matrix(1,0,0,1,5,1)"/>
</g>
<linearGradient id="linear2" gradientUnits="userSpaceOnUse" x1="12.0248" y1="8.561" x2="20.9752" y2="17.5115" >
<stop offset="0" style="stop-color:rgb(28.627451%,100%,39.215686%);stop-opacity:1;"/>
<stop offset="1" style="stop-color:rgb(0%,88.235294%,48.627451%);stop-opacity:1;"/>
</linearGradient>
</defs>
<g id="surface2">
<path style=" stroke:none;fill-rule:nonzero;fill:url(#linear0);" d="M 5 9 L 28 9 C 28.550781 9 29 9.449219 29 10 L 29 26 C 29 26.550781 28.550781 27 28 27 L 5 27 C 4.449219 27 4 26.550781 4 26 L 4 10 C 4 9.449219 4.449219 9 5 9 Z M 5 9 "/>
<path style=" stroke:none;fill-rule:nonzero;fill:url(#linear1);" d="M 5.257812 10 L 27.742188 10 C 27.882812 10 28 10.117188 28 10.257812 L 28 25.742188 C 28 25.882812 27.882812 26 27.742188 26 L 5.257812 26 C 5.117188 26 5 25.882812 5 25.742188 L 5 10.257812 C 5 10.117188 5.117188 10 5.257812 10 Z M 5.257812 10 "/>
<use xlink:href="#surface7" mask="url(#mask0)"/>
<path style=" stroke:none;fill-rule:nonzero;fill:url(#linear2);" d="M 21.542969 16 L 19 16 L 19 7 C 19 6.449219 18.550781 6 18 6 L 15 6 C 14.449219 6 14 6.449219 14 7 L 14 16 L 11.457031 16 C 11.378906 16 11.304688 16.046875 11.273438 16.121094 C 11.242188 16.195312 11.253906 16.277344 11.308594 16.335938 L 16.351562 21.835938 C 16.390625 21.878906 16.445312 21.902344 16.5 21.902344 C 16.554688 21.902344 16.609375 21.878906 16.648438 21.835938 L 21.691406 16.335938 C 21.746094 16.277344 21.757812 16.195312 21.726562 16.121094 C 21.695312 16.046875 21.621094 16 21.542969 16 Z M 21.542969 16 "/>
</g>
</svg>

<svg xmlns="http://www.w3.org/2000/svg" xmlns:xlink="http://www.w3.org/1999/xlink" width="32" height="32">
  <defs>
    <path id="a" fill-opacity=".2" d="M0 0h32v32H0z"/>
  </defs>
  <defs>
    <linearGradient id="e" x1="4" x2="29" y1="18" y2="18" gradientUnits="userSpaceOnUse">
      <stop offset="0" stop-color="#555a5f"/>
      <stop offset="1" stop-color="#4b4f53"/>
    </linearGradient>
    <linearGradient id="f" x1="6.826" x2="26.174" y1="8.326" y2="27.674" gradientUnits="userSpaceOnUse">
      <stop offset="0" stop-color="#3fe3e7"/>
      <stop offset="1" stop-color="#066bbc"/>
    </linearGradient>
    <linearGradient id="i" x1="12.025" x2="20.975" y1="8.561" y2="17.512" gradientUnits="userSpaceOnUse">
      <stop offset="0" stop-color="#49ff64"/>
      <stop offset="1" stop-color="#00e17c"/>
    </linearGradient>
    <clipPath id="c">
      <use xlink:href="#a"/>
    </clipPath>
    <filter id="b" width="100%" height="100%" x="0%" y="0%" filterUnits="objectBoundingBox">
      <feColorMatrix in="SourceGraphic" values="0 0 0 0 1 0 0 0 0 1 0 0 0 0 1 0 0 0 1 0"/>
    </filter>
    <image xlink:href="data:image/png;base64,iVBORw0KGgoAAAANSUhEUgAAABcAAAAcCAYAAACK7SRjAAAABmJLR0QA/wD/AP+gvaeTAAACEklEQVRIibWW227TQBCGPzuOHWhcTi1IiBve/6GQQKgQAeXUNE7TmIv5J5ls1iYgdaXRendm/5md0xoecBT/KFMAfVj3jIwx8CJQKfKxFfWBTgZ3wAlQAbW+S4HeA2tgo29XdDCqEfCJQB8Dc2AWwFfAb2ApJVnrc+DuikrAT4GXQCtla+AXsJC83ySNx6DlbvUceAW81dwAHfBZYBv27tn+r+WvgTfAGXAj5dein+HMSZZHn8+B57LcwZfa90BnE2MMvBS/Eegc83uhdSN+OQRe5jYTBa6kBqaaq8AbrJUh8FwBFclcJnJ/BU+tdSozlOMfKIngsSprrGgeaXZXxIpN+V7BOwU58FqHWuAJcI6lZCNeo/W5+K3k6xS8CsAx/c6AZ8AFloatAGdYLrfavwC+Y7m+Au6wYiqAPqaig890+AVW9pdYITl4ofUl+0L6huX/CqvWI7ekN3DfNok/PS7uJo/FUdZEy3tdaYP1j1usEp1uxe8y+x37/rJrAZOM1Z5m02DdVDId8ANrXB+A98BH4CvWKddYh+xT8KHhN+qwwC0E/E7gn7CgLkm6Y84td1hw3Mf3Orhg33K/AFcC9mB6puzckjauXmCd1lv2j8OV5DdaX8tFN5LfuWMMnKCgF9gSS8OJeCsskCsO/XwAPvZAx+A6+YOwCRT/Ao5AxkZUEmU9PoO/FaeAj8mN/hA9+PgDr+GZqA8HdAAAAAAASUVORK5CYII=" id="d" width="23" height="28"/>
    <mask id="h">
      <g filter="url(#b)">
        <use xlink:href="#a" fill-opacity=".2"/>
      </g>
    </mask>
    <g id="g" clip-path="url(#c)">
      <use xlink:href="#d" transform="translate(5 1)"/>
    </g>
  </defs>
  <path fill="url(#e)" d="M5 9h23c.55 0 1 .45 1 1v16c0 .55-.45 1-1 1H5c-.55 0-1-.45-1-1V10c0-.55.45-1 1-1Zm0 0"/>
  <path fill="url(#f)" d="M5.258 10h22.484a.26.26 0 0 1 .258.258v15.484a.26.26 0 0 1-.258.258H5.258A.26.26 0 0 1 5 25.742V10.258A.26.26 0 0 1 5.258 10Zm0 0"/>
  <use xlink:href="#g" mask="url(#h)"/>
  <path fill="url(#i)" d="M21.543 16H19V7c0-.55-.45-1-1-1h-3c-.55 0-1 .45-1 1v9h-2.543a.2.2 0 0 0-.184.121.197.197 0 0 0 .036.215l5.043 5.5a.2.2 0 0 0 .296 0l5.043-5.5a.197.197 0 0 0 .036-.215.2.2 0 0 0-.184-.121Zm0 0"/>
</svg>
